src/assets/icons/filters/categories/pc_stroke.svg

<svg width="44" height="42" viewBox="0 0 44 42" fill="none" xmlns="http://www.w3.org/2000/svg">
<path fill-rule="evenodd" clip-rule="evenodd" d="M41.25 33.77C41.25 35.0214 40.7536 36.2216 39.8696 37.1073C38.9857 37.9931 37.7865 38.4919 36.5351 38.4945H35.5534C34.3025 38.4916 33.1038 37.9927 32.2202 37.1073C31.3366 36.2219 30.8402 35.0222 30.8399 33.7714V27.5151C30.8399 26.264 31.3361 25.064 32.2198 24.1783C33.1034 23.2926 34.3023 22.7935 35.5534 22.7906H36.5351C37.7862 22.7932 38.9853 23.2919 39.8691 24.1773C40.753 25.0628 41.2496 26.2626 41.25 27.5138V33.77ZM28.2219 26.1346H2.75V4.09338C2.75 3.35638 3.3495 2.7555 4.0865 2.7555H34.4135C35.1505 2.7555 35.75 3.35637 35.75 4.09475V20.0337H35.5534C31.9082 20.0337 28.8709 22.6669 28.2219 26.1333V26.1346ZM6.875 30.2679C4.5265 30.2679 3.5145 29.5955 3.07863 28.8901H28.0899V30.2679H6.875ZM23.1454 38.4945H15.3588C16.4271 37.136 17.1641 35.277 17.5656 33.022H20.9619C20.9619 33.1114 20.9426 33.1953 20.9605 33.2846C21.384 35.4406 22.1251 37.1896 23.1454 38.4959V38.4945ZM38.5 20.3088C41.6639 21.175 44 24.0735 44 27.5138V33.77C44 37.895 40.6505 41.25 36.5351 41.25H35.5534C31.438 41.25 28.0899 37.895 28.0899 33.77V33.0234H23.7242C24.5039 36.6451 26.2309 38.4959 28.875 38.4959C29.0558 38.4959 29.2349 38.5315 29.402 38.6007C29.5691 38.6699 29.7209 38.7713 29.8487 38.8992C29.9766 39.0271 30.078 39.1789 30.1472 39.346C30.2164 39.513 30.2521 39.6921 30.2521 39.8729C30.2521 40.0538 30.2164 40.2328 30.1472 40.3999C30.078 40.567 29.9766 40.7188 29.8487 40.8467C29.7209 40.9745 29.5691 41.076 29.402 41.1452C29.2349 41.2144 29.0558 41.25 28.875 41.25H9.625C9.2596 41.25 8.90916 41.1048 8.65078 40.8465C8.39241 40.5881 8.24725 40.2377 8.24725 39.8723C8.24725 39.5068 8.39241 39.1564 8.65078 38.898C8.90916 38.6397 9.2596 38.4945 9.625 38.4945C12.925 38.4945 14.2532 35.5314 14.7881 33.022H6.875C2.56987 33.022 0 30.9636 0 27.5124V4.09475C-2.2013e-06 3.01018 0.430275 1.96992 1.19641 1.20224C1.96254 0.434559 3.00194 0.00218516 4.0865 0H34.4135C35.4981 0.00218516 36.5375 0.434559 37.3036 1.20224C38.0697 1.96992 38.5 3.01018 38.5 4.09475V20.3088ZM36.1432 24.7184C35.9624 24.7184 35.7834 24.754 35.6164 24.8233C35.4494 24.8926 35.2977 24.9941 35.17 25.1221C35.0423 25.25 34.9411 25.402 34.8721 25.5691C34.8032 25.7362 34.7679 25.9153 34.7682 26.0961V28.8901C34.7682 29.2548 34.9131 29.6045 35.171 29.8624C35.4288 30.1203 35.7786 30.2651 36.1432 30.2651C36.5079 30.2651 36.8577 30.1203 37.1155 29.8624C37.3734 29.6045 37.5182 29.2548 37.5182 28.8901V26.0961C37.5186 25.9153 37.4833 25.7362 37.4144 25.5691C37.3454 25.402 37.2442 25.25 37.1165 25.1221C36.9888 24.9941 36.8371 24.8926 36.6701 24.8233C36.5031 24.754 36.324 24.7184 36.1432 24.7184V24.7184ZM20.2262 4.49213C20.0329 4.30133 19.7874 4.17209 19.5206 4.1207C19.2539 4.06931 18.9779 4.09808 18.7275 4.20338C18.5488 4.27213 18.4113 4.36838 18.2738 4.49213C18.15 4.631 18.0537 4.78088 17.985 4.94588C17.896 5.15426 17.8603 5.38152 17.881 5.60716C17.9018 5.8328 17.9783 6.04973 18.1038 6.23839C18.2293 6.42705 18.3998 6.58152 18.5999 6.68785C18.8 6.79419 19.0234 6.84905 19.25 6.8475C19.4312 6.84953 19.6111 6.8153 19.7789 6.74684C19.9467 6.67837 20.0992 6.57704 20.2273 6.44881C20.3554 6.32057 20.4566 6.16802 20.5249 6.00013C20.5932 5.83223 20.6272 5.65237 20.625 5.47113C20.625 5.29238 20.5975 5.11225 20.515 4.94725C20.4463 4.78225 20.35 4.631 20.2262 4.4935V4.49213Z" fill="black"/>
</svg>

<svg width="44" height="42" viewBox="0 0 44 42" fill="none" xmlns="http://www.w3.org/2000/svg"><path fill-rule="evenodd" clip-rule="evenodd" d="M41.25 33.77a4.724 4.724 0 01-4.715 4.724h-.982a4.725 4.725 0 01-4.713-4.723v-6.256a4.724 4.724 0 014.713-4.724h.982a4.725 4.725 0 014.715 4.723v6.256zm-13.028-7.635H2.75V4.093c0-.737.6-1.337 1.337-1.337h30.326c.738 0 1.337.6 1.337 1.339v15.939h-.197c-3.645 0-6.682 2.633-7.331 6.1zM6.875 30.268c-2.348 0-3.36-.672-3.796-1.378h25.01v1.378H6.876zm16.27 8.227H15.36c1.068-1.359 1.805-3.218 2.207-5.473h3.396c0 .09-.02.173-.002.263.424 2.156 1.165 3.905 2.185 5.21zM38.5 20.309c3.164.866 5.5 3.764 5.5 7.205v6.256c0 4.125-3.35 7.48-7.465 7.48h-.982c-4.115 0-7.463-3.355-7.463-7.48v-.747h-4.366c.78 3.622 2.507 5.473 5.151 5.473a1.377 1.377 0 010 2.754H9.625a1.378 1.378 0 010-2.755c3.3 0 4.628-2.964 5.163-5.473H6.875C2.57 33.022 0 30.964 0 27.512V4.095A4.095 4.095 0 014.087 0h30.326A4.095 4.095 0 0138.5 4.095v16.214zm-2.357 4.41a1.374 1.374 0 00-1.375 1.377v2.794a1.375 1.375 0 002.75 0v-2.794a1.375 1.375 0 00-1.375-1.378zM20.226 4.491a1.374 1.374 0 00-1.498-.289 1.42 1.42 0 00-.454.29c-.124.138-.22.288-.289.453a1.366 1.366 0 001.265 1.902 1.36 1.36 0 001.375-1.377c0-.179-.027-.359-.11-.524a1.586 1.586 0 00-.289-.454z" fill="#000"/></svg>
